X: 1576
T:Brown William (Illiam Dhone)
M:3/4
L:1/8
K:D
A2|A2d2d2|d2c2d2|e2a2a2|a4f2|
g2f2g2|f2e2f2|d2B2c2|d4fg|
a2d2d2|c2d2e2|f2B2B2|B4A2|
A2B2B2|B2A2B2|c2d2d2|d4||
